src/assets/images/contacts-icon-3.svg

<svg width="30" height="24" viewBox="0 0 30 24" fill="none" xmlns="http://www.w3.org/2000/svg">
<path d="M27.7778 0H2.22222C0.995 0 0 0.995 0 2.22222V21.1111C0 22.3383 0.995 23.3333 2.22222 23.3333H27.7778C29.005 23.3333 30 22.3383 30 21.1111V2.22222C30 0.995 29.005 0 27.7778 0ZM27.7778 19.8544C27.7522 20.5556 27.1672 21.1111 26.4544 21.1111H24.7222L25.5556 6.11111L15 12.7778L4.44444 6.66667L5.27778 21.1111H3.54556C2.83278 21.1111 2.24778 20.5556 2.22222 19.8544V3.49389C2.22222 2.79944 2.79444 2.23667 3.5 2.23667H4.16667L15 10.5556L25.8333 2.23667H26.5C27.2056 2.23667 27.7778 2.79944 27.7778 3.49389V19.8544Z" fill="white"/>
</svg>

<svg xmlns="http://www.w3.org/2000/svg" width="30" height="24" fill="none"><path d="M27.778 0H2.222C.995 0 0 .995 0 2.222v18.889c0 1.227.995 2.222 2.222 2.222h25.556c1.227 0 2.222-.995 2.222-2.222V2.222C30 .995 29.005 0 27.778 0zm0 19.854c-.026.701-.611 1.257-1.323 1.257h-1.732l.833-15L15 12.778 4.444 6.667l.833 14.444H3.546c-.713 0-1.298-.556-1.323-1.257V3.494c0-.694.572-1.257 1.278-1.257h.667L15 10.556l10.833-8.319h.667c.706 0 1.278.563 1.278 1.257v16.361z" fill="#fff"/></svg>
